communes/3986.svg

<?xml version="1.0" encoding="UTF-8"?>
<!DOCTYPE svg  PUBLIC '-//W3C//DTD SVG 1.1//EN'  'http://www.w3.org/Graphics/SVG/1.1/DTD/svg11.dtd'>
<svg width="438" height="480" viewBox="21 15 438 480" xmlns="http://www.w3.org/2000/svg">
<metadata>
<rdf:RDF xmlns:dc="http://purl.org/dc/elements/1.1/" xmlns:rdf="http://www.w3.org/1999/02/22-rdf-syntax-ns#">
<rdf:Description dc:date="2006-10-26" dc:format="image/svg+xml" dc:language="de" dc:title="Wappen Tujetsch (CH-GR)">
<dc:creator rdf:resource="http://de.wikipedia.org/wiki/Benutzer:Bernina"/>
</rdf:Description>
</rdf:RDF>
</metadata>
<title>Wappen Tujetsch (CH-GR)</title>
<defs>
<clipPath id="a">
<path d="m360 4140a3240 3240 0 0 0 6480 0v-3870h-6480v3870z"/>
</clipPath>
<style type="text/css"><![CDATA[
  .Rand2 { stroke: #202020; stroke-width:30; }
  .Rand6 { stroke: #202020; stroke-width:90; }
  .Rot { fill: #ff0000; }
  .Silber { fill: #ffffff; }
  ]]></style>
</defs>
<g transform="scale(.066667)" fill="none" fill-rule="evenodd" stroke-miterlimit="10" stroke-width="10">
<g clip-path="url(#a)">
<path class="Rot" d="m-225-225v7650h7650v-7650h-7650z"/>
<path class="Silber Rand2" d="m4950 6030a1350 1350 0 0 0-2700 0h-900v-4320h900v2160h2700v-2160h900v4320h-900z"/>
<path class="Silber Rand2" d="m1260 1710h1080l180-900h-270l-90 450h-180v-450h-360v450h-180l-90-450h-270l180 900z"/>
<path class="Silber Rand2" d="m4860 1710h1080l180-900h-270l-90 450h-180v-450h-360v450h-180l-90-450h-270l180 900z"/>
</g>
<path class="Rand6" d="m360 4140a3240 3240 0 0 0 6480 0v-3870h-6480v3870z"/>
</g>
</svg>

<?xml version="1.0" encoding="iso-8859-1"?>
<!DOCTYPE svg PUBLIC "-//W3C//DTD SVG 1.1//EN" "http://www.w3.org/Graphics/SVG/1.1/DTD/svg11.dtd">
<!-- Auto-generated by fig2svg tool
     Date: Thu Oct 26 13:16:35 2006 -->
<svg xmlns="http://www.w3.org/2000/svg"
     width="438" height="480" viewBox="21 15 438 480">
<metadata>
<rdf:RDF xmlns:rdf="http://www.w3.org/1999/02/22-rdf-syntax-ns#"
         xmlns:dc="http://purl.org/dc/elements/1.1/">
<rdf:Description
 dc:title="Wappen Tujetsch (CH-GR)"
 dc:date="2006-10-26"
 dc:format="image/svg+xml"
 dc:language="de">
<dc:creator rdf:resource="http://de.wikipedia.org/wiki/Benutzer:Bernina" />
</rdf:Description>
</rdf:RDF>
</metadata>
<title>
Wappen Tujetsch (CH-GR)
</title>
<defs>
<clipPath id="clippath">
<path d="M360,4140 A3240,3240 0.0 0 0 6840,4140 L6840,270 L360,270 L360,4140 Z" />
</clipPath>
<style type="text/css">
  <![CDATA[
  .Rand2 { stroke: #202020; stroke-width:30; }
  .Rand6 { stroke: #202020; stroke-width:90; }
  .Rot { fill: #ff0000; }
  .Silber { fill: #ffffff; }
  ]]>
</style>
</defs>
<g stroke="none" stroke-miterlimit="10" stroke-width="10"
   stroke-linecap="butt" stroke-linejoin="miter"
   fill="none" fill-rule="evenodd" transform="scale(0.066667)">
<g clip-path="url(#clippath)">
<path id="feld-1" class="Rot"
      d="M-225,-225 L-225,7425 L7425,7425 L7425,-225 L-225,-225 Z" />
<path id="burg-1" class="Silber Rand2"
      d="M4950,6030 A1350,1350 0.0 0 0 2250,6030 L1350,6030 L1350,1710
         L2250,1710 L2250,3870 L4950,3870 L4950,1710 L5850,1710 L5850,6030
         L4950,6030 Z" />
<path id="zinne-1" class="Silber Rand2"
      d="M1260,1710 L2340,1710 L2520,810 L2250,810 L2160,1260 L1980,1260
         L1980,810 L1620,810 L1620,1260 L1440,1260 L1350,810 L1080,810
         L1260,1710 Z" />
<path id="zinne-2" class="Silber Rand2"
      d="M4860,1710 L5940,1710 L6120,810 L5850,810 L5760,1260 L5580,1260
         L5580,810 L5220,810 L5220,1260 L5040,1260 L4950,810 L4680,810
         L4860,1710 Z" />
</g>
<path id="clip-boundary" class="Rand6"
      d="M360,4140 A3240,3240 0.0 0 0 6840,4140 L6840,270 L360,270 L360,4140 Z" />
</g>
</svg>
